src/shared/assets/image/calendar/1-january.svg

<svg width="24" height="24" viewBox="0 0 24 24" fill="none" xmlns="http://www.w3.org/2000/svg">
<g clip-path="url(#clip0_1_773)">
<path d="M19.5 2H18V0.5C18 0.224 17.776 0 17.5 0C17.224 0 17 0.224 17 0.5V2H7V0.5C7 0.224 6.776 0 6.5 0C6.224 0 6 0.224 6 0.5V2H4.5C2.019 2 0 4.019 0 6.5V19.5C0 21.981 2.019 24 4.5 24H5.5C5.776 24 6 23.776 6 23.5C6 23.224 5.776 23 5.5 23H4.5C2.57 23 1 21.43 1 19.5V9H23V13.5C23 13.776 23.224 14 23.5 14C23.776 14 24 13.776 24 13.5V6.5C24 4.019 21.981 2 19.5 2ZM1 8V6.5C1 4.57 2.57 3 4.5 3H19.5C21.43 3 23 4.57 23 6.5V8H1Z" fill="#474A55"/>
<path d="M9.42 22.07C9.28667 22.07 9.18333 22.0333 9.11 21.96C9.04333 21.88 9.01 21.7733 9.01 21.64V19.02H7.83C7.61667 19.02 7.43 19.04 7.27 19.08C7.11667 19.12 6.97667 19.1933 6.85 19.3C6.73 19.4 6.62 19.5467 6.52 19.74L5.4 21.81C5.34667 21.91 5.27667 21.98 5.19 22.02C5.10333 22.06 5.02 22.0733 4.94 22.06C4.86 22.0467 4.79 22.0133 4.73 21.96C4.67 21.9 4.63333 21.8267 4.62 21.74C4.60667 21.6533 4.63 21.5533 4.69 21.44L5.63 19.7C5.78333 19.4133 5.95667 19.2033 6.15 19.07C6.35 18.93 6.58 18.86 6.84 18.86H7.1L7.04 18.99C6.3 18.99 5.72333 18.8133 5.31 18.46C4.89667 18.1067 4.69 17.6167 4.69 16.99C4.69 16.55 4.78 16.18 4.96 15.88C5.14 15.58 5.40667 15.35 5.76 15.19C6.11333 15.03 6.54 14.95 7.04 14.95H9.38C9.52667 14.95 9.63667 14.99 9.71 15.07C9.79 15.1433 9.83 15.2533 9.83 15.4V21.64C9.83 21.7733 9.79333 21.88 9.72 21.96C9.65333 22.0333 9.55333 22.07 9.42 22.07ZM7.16 18.37H9.01V15.63H7.16C6.61333 15.63 6.2 15.7467 5.92 15.98C5.64 16.2067 5.5 16.5433 5.5 16.99C5.5 17.45 5.64 17.7967 5.92 18.03C6.2 18.2567 6.61333 18.37 7.16 18.37ZM11.9092 22.07C11.7759 22.07 11.6726 22.0333 11.5992 21.96C11.5326 21.8867 11.4992 21.7833 11.4992 21.65V17.48C11.4992 17.34 11.5326 17.2367 11.5992 17.17C11.6726 17.1033 11.7759 17.07 11.9092 17.07C12.0359 17.07 12.1326 17.1033 12.1992 17.17C12.2726 17.2367 12.3092 17.34 12.3092 17.48V19.16H14.9592V17.48C14.9592 17.34 14.9926 17.2367 15.0592 17.17C15.1326 17.1033 15.2326 17.07 15.3592 17.07C15.4859 17.07 15.5859 17.1033 15.6592 17.17C15.7326 17.2367 15.7692 17.34 15.7692 17.48V21.65C15.7692 21.7833 15.7326 21.8867 15.6592 21.96C15.5859 22.0333 15.4859 22.07 15.3592 22.07C15.2326 22.07 15.1326 22.0333 15.0592 21.96C14.9926 21.8867 14.9592 21.7833 14.9592 21.65V19.82H12.3092V21.65C12.3092 21.7833 12.2759 21.8867 12.2092 21.96C12.1426 22.0333 12.0426 22.07 11.9092 22.07ZM17.7884 22C17.655 22 17.5517 21.9633 17.4784 21.89C17.405 21.8167 17.3684 21.7133 17.3684 21.58V17.56C17.3684 17.4267 17.405 17.3233 17.4784 17.25C17.5517 17.1767 17.655 17.14 17.7884 17.14H19.7384C20.125 17.14 20.4417 17.19 20.6884 17.29C20.935 17.3833 21.1184 17.5267 21.2384 17.72C21.3584 17.9067 21.4184 18.14 21.4184 18.42C21.4184 18.7267 21.3084 18.9867 21.0884 19.2C20.875 19.4133 20.595 19.54 20.2484 19.58V19.45C20.6617 19.4633 20.985 19.58 21.2184 19.8C21.4584 20.02 21.5784 20.3067 21.5784 20.66C21.5784 21.0733 21.425 21.4 21.1184 21.64C20.8117 21.88 20.3784 22 19.8184 22H17.7884ZM18.1384 21.45H19.7884C20.115 21.45 20.365 21.38 20.5384 21.24C20.7184 21.0933 20.8084 20.8867 20.8084 20.62C20.8084 20.3533 20.7184 20.15 20.5384 20.01C20.365 19.87 20.115 19.8 19.7884 19.8H18.1384V21.45ZM18.1384 19.25H19.6984C19.9984 19.25 20.2317 19.18 20.3984 19.04C20.5717 18.9 20.6584 18.7067 20.6584 18.46C20.6584 18.2133 20.5717 18.0233 20.3984 17.89C20.2317 17.7567 19.9984 17.69 19.6984 17.69H18.1384V19.25Z" fill="#474A55"/>
</g>
<defs>
<clipPath id="clip0_1_773">
<rect width="24" height="24" fill="white"/>
</clipPath>
</defs>
</svg>

<svg width="24" height="24" fill="none" xmlns="http://www.w3.org/2000/svg"><g clip-path="url(#a)" fill="#474A55"><path d="M19.5 2H18V.5a.5.5 0 0 0-1 0V2H7V.5a.5.5 0 0 0-1 0V2H4.5A4.5 4.5 0 0 0 0 6.5v13A4.5 4.5 0 0 0 4.5 24h1a.5.5 0 0 0 0-1h-1A3.5 3.5 0 0 1 1 19.5V9h22v4.5a.5.5 0 0 0 1 0v-7A4.5 4.5 0 0 0 19.5 2ZM1 8V6.5A3.5 3.5 0 0 1 4.5 3h15A3.5 3.5 0 0 1 23 6.5V8H1Z"/><path d="M9.42 22.07a.42.42 0 0 1-.31-.11.48.48 0 0 1-.1-.32v-2.62H7.83c-.21 0-.4.02-.56.06-.15.04-.3.11-.42.22-.12.1-.23.25-.33.44L5.4 21.81a.46.46 0 0 1-.21.21.41.41 0 0 1-.46-.06.39.39 0 0 1-.11-.22.5.5 0 0 1 .07-.3l.94-1.74c.15-.29.33-.5.52-.63.2-.14.43-.21.69-.21h.26l-.06.13c-.74 0-1.32-.18-1.73-.53a1.83 1.83 0 0 1-.62-1.47c0-.44.09-.81.27-1.11.18-.3.45-.53.8-.69.35-.16.78-.24 1.28-.24h2.34c.15 0 .26.04.33.12.08.07.12.18.12.33v6.24c0 .13-.04.24-.11.32-.07.07-.17.11-.3.11Zm-2.26-3.7h1.85v-2.74H7.16c-.55 0-.96.12-1.24.35-.28.23-.42.56-.42 1.01 0 .46.14.8.42 1.04.28.23.7.34 1.24.34Zm4.75 3.7a.42.42 0 0 1-.31-.11.44.44 0 0 1-.1-.31v-4.17c0-.14.03-.24.1-.31s.18-.1.3-.1c.14 0 .23.03.3.1.07.07.1.17.1.31v1.68h2.66v-1.68c0-.14.03-.24.1-.31s.17-.1.3-.1c.13 0 .23.03.3.1.07.07.1.17.1.31v4.17c0 .13-.03.24-.1.31a.4.4 0 0 1-.3.11.4.4 0 0 1-.3-.11.44.44 0 0 1-.1-.31v-1.83H12.3v1.83c0 .13-.03.24-.1.31s-.17.11-.3.11Zm5.88-.07a.42.42 0 0 1-.31-.11.42.42 0 0 1-.11-.31v-4.02c0-.13.04-.24.1-.31a.42.42 0 0 1 .32-.11h1.95c.39 0 .7.05.95.15.24.1.43.24.55.43.12.19.18.42.18.7 0 .3-.11.57-.33.78-.21.21-.5.34-.84.38v-.13c.41.01.73.13.97.35.24.22.36.5.36.86 0 .41-.15.74-.46.98-.3.24-.74.36-1.3.36h-2.03Zm.35-.55h1.65c.32 0 .57-.07.75-.21a.75.75 0 0 0 .27-.62c0-.27-.1-.47-.27-.61a1.17 1.17 0 0 0-.75-.21h-1.65v1.65Zm0-2.2h1.56c.3 0 .53-.07.7-.21a.7.7 0 0 0 .26-.58.68.68 0 0 0-.26-.57 1.1 1.1 0 0 0-.7-.2h-1.56v1.56Z"/></g><defs><clipPath id="a"><path fill="#fff" d="M0 0h24v24H0z"/></clipPath></defs></svg>
